X:859
T:Bugle Call, The
C:Joe Buchanan's Scottish Tome - Page 418.0
I:418 0
R:Two-step
Z:Carl Allison
L:1/8
M:6/8
K:D
P:A
"D"faf d3 | dfd A3 | faf d2 f | A6 |
"A7"A2 B c2 d | e2 ^d e3 | "D"d2 e f2 g | a6 |
faf d3 | dfd A3 | faf d2 f | A6 |
"A7"A2 B c2 d | e2 ^d e2 f | "D"d3 "A7"f3 | "D"d3 :|
P:B
"D"aaa ^g2 a | b2 a ^g2 a | b2 a d2 e | "D"f6 |
"A7"a2 ^g d2 f | e6 |  a2 g ^d2 f | e6 |
"D"aaa ^g2 a | b2 a ^g2 a | b2 a d2 e | f6 |
"A7"a2 g ^d2 f | e2 A ABc | "D"d3 "A7"f3 | "D"d6 :|[K:G]
%%newpage
